X: 16928
T: Haven
R: waltz
M: 3/4
K: Edorian
E2 BE Bd-|dE BE Bd|A2 AG FG|A/B/A AG ED|
DE BE Bd-|dE BE Bd|A2 AG FG|1 A2 GE ED:|2 A2 GA Bd||
de dB de-|eB AG AB|E3 B AG|A/B/A GA Bd|
de dB de-|eB AG AB|GE EB GE|1 A2 GA Bd:|2 A3 B GF||

